SVG_Azure_All/Virtual Machine (classic).svg

<?xml version="1.0" encoding="UTF-8" standalone="no"?>
<!-- Generated by Microsoft Visio, SVG Export Virtual Machine (classic).svg Page-1 -->

<svg
   xmlns:dc="http://purl.org/dc/elements/1.1/"
   xmlns:cc="http://creativecommons.org/ns#"
   xmlns:rdf="http://www.w3.org/1999/02/22-rdf-syntax-ns#"
   xmlns:svg="http://www.w3.org/2000/svg"
   xmlns="http://www.w3.org/2000/svg"
   xmlns:sodipodi="http://sodipodi.sourceforge.net/DTD/sodipodi-0.dtd"
   xmlns:inkscape="http://www.inkscape.org/namespaces/inkscape"
   width="0.78736138in"
   height="0.70868915in"
   viewBox="0 0 56.689928 51.025603"
   xml:space="preserve"
   class="st9"
   version="1.1"
   id="svg65"
   sodipodi:docname="Virtual Machine (classic).svg"
   style="font-size:12px;overflow:visible;color-interpolation-filters:sRGB;fill:none;fill-rule:evenodd;stroke-linecap:square;stroke-miterlimit:3"
   inkscape:version="0.92.5 (2060ec1f9f, 2020-04-08)"><metadata
   id="metadata69"><rdf:RDF><cc:Work
       rdf:about=""><dc:format>image/svg+xml</dc:format><dc:type
         rdf:resource="http://purl.org/dc/dcmitype/StillImage" /></cc:Work></rdf:RDF></metadata><sodipodi:namedview
   pagecolor="#ffffff"
   bordercolor="#666666"
   borderopacity="1"
   objecttolerance="10"
   gridtolerance="10"
   guidetolerance="10"
   inkscape:pageopacity="0"
   inkscape:pageshadow="2"
   inkscape:window-width="640"
   inkscape:window-height="480"
   id="namedview67"
   showgrid="false"
   inkscape:zoom="1.4869072"
   inkscape:cx="37.795348"
   inkscape:cy="34.006413"
   inkscape:window-x="0"
   inkscape:window-y="0"
   inkscape:window-maximized="0"
   inkscape:current-layer="svg65" />
	<style
   type="text/css"
   id="style2">
	<![CDATA[
		.st1 {fill:url(#grad0-6);stroke:none;stroke-linecap:butt;stroke-width:34}
		.st2 {fill:#ffffff;stroke:none;stroke-linecap:butt;stroke-width:34}
		.st3 {fill:#0078d4;stroke:none;stroke-linecap:butt;stroke-width:34}
		.st4 {fill:#83b9f9;stroke:none;stroke-linecap:butt;stroke-width:34}
		.st5 {fill:#5ea0ef;stroke:none;stroke-linecap:butt;stroke-width:34}
		.st6 {fill:#83b9f9;fill-opacity:0.2;stroke:none;stroke-linecap:butt;stroke-width:34}
		.st7 {fill:#5ea0ef;fill-opacity:0.2;stroke:none;stroke-linecap:butt;stroke-width:34}
		.st8 {fill:url(#grad0-22);stroke:none;stroke-linecap:butt;stroke-width:34}
		.st9 {fill:none;fill-rule:evenodd;font-size:12px;overflow:visible;stroke-linecap:square;stroke-miterlimit:3}
	]]>
	</style>

	<defs
   id="Patterns_And_Gradients">
		<linearGradient
   id="grad0-6"
   x1="0"
   y1="102.02082"
   x2="45.687261"
   y2="102.02082"
   gradientTransform="scale(1.2408273,0.80591393)"
   gradientUnits="userSpaceOnUse">
			<stop
   offset="0"
   stop-color="#0078d4"
   stop-opacity="1"
   id="stop4" />
			<stop
   offset="0.82"
   stop-color="#5ea0ef"
   stop-opacity="1"
   id="stop6" />
		</linearGradient>
		<linearGradient
   id="grad0-22"
   x1="-5.1155204e-05"
   y1="148.06963"
   x2="20.071202"
   y2="148.06963"
   gradientTransform="scale(1.4124738,0.70797773)"
   gradientUnits="userSpaceOnUse">
			<stop
   offset="0"
   stop-color="#1490df"
   stop-opacity="1"
   id="stop9" />
			<stop
   offset="0.98"
   stop-color="#1f56a3"
   stop-opacity="1"
   id="stop11" />
		</linearGradient>
	</defs>
	<g
   id="g63"
   transform="translate(-34.000079,-33.9987)">
		<title
   id="title15">Page-1</title>
		<g
   id="group559-1"
   transform="translate(34,-34.0157)">
			<title
   id="title17">Virtual Machine (classic)</title>
			<g
   id="group560-2">
				<title
   id="title19">Icon-compute-28</title>
				<g
   id="shape561-3"
   transform="translate(0,-14.2056)">
					<title
   id="title21">Sheet.561</title>
					<path
   d="m 0,117.2 a 1.88981,1.84094 -180 0 0 1.89,1.84 H 54.8 a 1.88981,1.84094 -180 0 0 1.89,-1.84 V 84.06 A 1.88981,1.84094 -180 0 0 54.8,82.22 H 1.89 A 1.88981,1.84094 -180 0 0 0,84.06 Z"
   class="st1"
   id="path23"
   inkscape:connector-curvature="0"
   style="fill:url(#grad0-6);stroke:none;stroke-width:34;stroke-linecap:butt" />
				</g>
				<g
   id="shape562-7"
   transform="translate(3.14961,-17.2738)">
					<title
   id="title26">Sheet.562</title>
					<path
   d="m 0,118.03 a 1.03939,1.01252 -180 0 0 1.04,1.01 h 48.31 a 1.03939,1.01252 -180 0 0 1.04,-1.01 V 89.37 A 1.03939,1.01252 -180 0 0 49.35,88.36 H 1.04 A 1.03939,1.01252 -180 0 0 0,89.37 Z"
   class="st2"
   id="path28"
   inkscape:connector-curvature="0"
   style="fill:#ffffff;stroke:none;stroke-width:34;stroke-linecap:butt" />
				</g>
				<g
   id="shape563-9"
   transform="translate(28.3465,-21.876)">
					<title
   id="title31">Sheet.563</title>
					<path
   d="m 9.45,102.93 v 10.71 L 0,119.04 V 108.3 Z"
   class="st3"
   id="path33"
   inkscape:connector-curvature="0"
   style="fill:#0078d4;stroke:none;stroke-width:34;stroke-linecap:butt" />
				</g>
				<g
   id="shape564-11"
   transform="translate(18.8976,-32.5839)">
					<title
   id="title36">Sheet.564</title>
					<path
   d="m 18.9,113.64 -9.45,5.4 -9.45,-5.4 9.45,-5.37 z"
   class="st4"
   id="path38"
   inkscape:connector-curvature="0"
   style="fill:#83b9f9;stroke:none;stroke-width:34;stroke-linecap:butt" />
				</g>
				<g
   id="shape565-13"
   transform="translate(18.8976,-21.876)">
					<title
   id="title41">Sheet.565</title>
					<path
   d="m 9.45,108.33 v 10.71 L 0,113.64 v -10.71 z"
   class="st5"
   id="path43"
   inkscape:connector-curvature="0"
   style="fill:#5ea0ef;stroke:none;stroke-width:34;stroke-linecap:butt" />
				</g>
				<g
   id="shape566-15"
   transform="translate(18.8976,-21.876)">
					<title
   id="title46">Sheet.566</title>
					<path
   d="m 0,113.64 9.45,-5.34 v 10.74 z"
   class="st6"
   id="path48"
   inkscape:connector-curvature="0"
   style="fill:#83b9f9;fill-opacity:0.2;stroke:none;stroke-width:34;stroke-linecap:butt" />
				</g>
				<g
   id="shape567-17"
   transform="translate(28.3465,-21.876)">
					<title
   id="title51">Sheet.567</title>
					<path
   d="M 9.45,113.64 0,108.3 v 10.74 z"
   class="st7"
   id="path53"
   inkscape:connector-curvature="0"
   style="fill:#5ea0ef;fill-opacity:0.2;stroke:none;stroke-width:34;stroke-linecap:butt" />
				</g>
				<g
   id="shape568-19"
   transform="translate(14.1732)">
					<title
   id="title56">Sheet.568</title>
					<path
   d="m 25.51,115.97 c -5.57,-0.86 -5.79,-4.82 -5.79,-11.14 H 8.6 c 0,6.32 -0.22,10.28 -5.8,11.14 A 3.14961,3.06817 -180 0 0 0,119.04 h 28.35 a 3.14961,3.06817 -180 0 0 -2.84,-3.07 z"
   class="st8"
   id="path58"
   inkscape:connector-curvature="0"
   style="fill:url(#grad0-22);stroke:none;stroke-width:34;stroke-linecap:butt" />
				</g>
			</g>
		</g>
	</g>
</svg>

<?xml version="1.0" encoding="UTF-8" standalone="no"?>
<!DOCTYPE svg PUBLIC "-//W3C//DTD SVG 1.1//EN" "http://www.w3.org/Graphics/SVG/1.1/DTD/svg11.dtd">
<!-- Generated by Microsoft Visio, SVG Export Virtual Machine (classic).svg Page-1 -->
<svg xmlns="http://www.w3.org/2000/svg" xmlns:xlink="http://www.w3.org/1999/xlink" xmlns:ev="http://www.w3.org/2001/xml-events"
		width="1.73185in" height="1.65332in" viewBox="0 0 124.693 119.039" xml:space="preserve" color-interpolation-filters="sRGB"
		class="st9">
	<style type="text/css">
	<![CDATA[
		.st1 {fill:url(#grad0-6);stroke:none;stroke-linecap:butt;stroke-width:34}
		.st2 {fill:#ffffff;stroke:none;stroke-linecap:butt;stroke-width:34}
		.st3 {fill:#0078d4;stroke:none;stroke-linecap:butt;stroke-width:34}
		.st4 {fill:#83b9f9;stroke:none;stroke-linecap:butt;stroke-width:34}
		.st5 {fill:#5ea0ef;stroke:none;stroke-linecap:butt;stroke-width:34}
		.st6 {fill:#83b9f9;fill-opacity:0.2;stroke:none;stroke-linecap:butt;stroke-width:34}
		.st7 {fill:#5ea0ef;fill-opacity:0.2;stroke:none;stroke-linecap:butt;stroke-width:34}
		.st8 {fill:url(#grad0-22);stroke:none;stroke-linecap:butt;stroke-width:34}
		.st9 {fill:none;fill-rule:evenodd;font-size:12px;overflow:visible;stroke-linecap:square;stroke-miterlimit:3}
	]]>
	</style>

	<defs id="Patterns_And_Gradients">
		<linearGradient id="grad0-6" x1="0" y1="0" x2="1" y2="0" gradientTransform="rotate(-90 0.5 0.5)">
			<stop offset="0" stop-color="#0078d4" stop-opacity="1"/>
			<stop offset="0.82" stop-color="#5ea0ef" stop-opacity="1"/>
		</linearGradient>
		<linearGradient id="grad0-22" x1="0" y1="0" x2="1" y2="0" gradientTransform="rotate(-90 0.5 0.5)">
			<stop offset="0" stop-color="#1490df" stop-opacity="1"/>
			<stop offset="0.98" stop-color="#1f56a3" stop-opacity="1"/>
		</linearGradient>
	</defs>
	<g>
		<title>Page-1</title>
		<g id="group559-1" transform="translate(34,-34.0157)">
			<title>Virtual Machine (classic)</title>
			<g id="group560-2">
				<title>Icon-compute-28</title>
				<g id="shape561-3" transform="translate(0,-14.2056)">
					<title>Sheet.561</title>
					<path d="M0 117.2 A1.88981 1.84094 -180 0 0 1.89 119.04 L54.8 119.04 A1.88981 1.84094 -180 0 0 56.69 117.2 L56.69
								 84.06 A1.88981 1.84094 -180 0 0 54.8 82.22 L1.89 82.22 A1.88981 1.84094 -180 0 0 0 84.06 L0 117.2
								 Z" class="st1"/>
				</g>
				<g id="shape562-7" transform="translate(3.14961,-17.2738)">
					<title>Sheet.562</title>
					<path d="M0 118.03 A1.03939 1.01252 -180 0 0 1.04 119.04 L49.35 119.04 A1.03939 1.01252 -180 0 0 50.39 118.03
								 L50.39 89.37 A1.03939 1.01252 -180 0 0 49.35 88.36 L1.04 88.36 A1.03939 1.01252 -180 0 0 0 89.37
								 L0 118.03 Z" class="st2"/>
				</g>
				<g id="shape563-9" transform="translate(28.3465,-21.876)">
					<title>Sheet.563</title>
					<path d="M9.45 102.93 L9.45 113.64 L0 119.04 L0 108.3 L9.45 102.93 Z" class="st3"/>
				</g>
				<g id="shape564-11" transform="translate(18.8976,-32.5839)">
					<title>Sheet.564</title>
					<path d="M18.9 113.64 L9.45 119.04 L0 113.64 L9.45 108.27 L18.9 113.64 Z" class="st4"/>
				</g>
				<g id="shape565-13" transform="translate(18.8976,-21.876)">
					<title>Sheet.565</title>
					<path d="M9.45 108.33 L9.45 119.04 L0 113.64 L0 102.93 L9.45 108.33 Z" class="st5"/>
				</g>
				<g id="shape566-15" transform="translate(18.8976,-21.876)">
					<title>Sheet.566</title>
					<path d="M0 113.64 L9.45 108.3 L9.45 119.04 L0 113.64 Z" class="st6"/>
				</g>
				<g id="shape567-17" transform="translate(28.3465,-21.876)">
					<title>Sheet.567</title>
					<path d="M9.45 113.64 L0 108.3 L0 119.04 L9.45 113.64 Z" class="st7"/>
				</g>
				<g id="shape568-19" transform="translate(14.1732,1.42109E-14)">
					<title>Sheet.568</title>
					<path d="M25.51 115.97 C19.94 115.11 19.72 111.15 19.72 104.83 L8.6 104.83 C8.6 111.15 8.38 115.11 2.8 115.97
								 A3.14961 3.06817 -180 0 0 0 119.04 L28.35 119.04 A3.14961 3.06817 -180 0 0 25.51 115.97 Z"
							class="st8"/>
				</g>
			</g>
		</g>
	</g>
</svg>
